X:1
T:Title
%%score ( 1 2 ) { 3 | 4 }
L:1/8
Q:1/4=110
M:9/8
K:G
V:1 treble nm="Grand Piano, Soprano"
V:2 treble 
V:3 bass nm="Choir Pad, Enumclaw, H. A. Lewis 1887"
V:4 bass 
V:1
 [B,G]2 [CA] [DB]3 [DB]3 | cB[Dc] [Dd]3 [DB]3 | BG[GB] [FA]3- [FA]2 [DF] | [DG]2 [DA] [DB]6 | %4
w: By~Henry~A.~Lewis,~1887 * * *||||
 [B,G]2 [CA] [DB]3 [DB]3 | cB[Dc] [Dd]3 [DB]3 | BG[GB] [Fc]3- [Fc]2 [FA] | FE[DF] [DG]6 | %8
w: ||||
[M:12/8] [DB][Ec][Fd] [Ge]6- [Ge]2 [Ge] | [Gc]2 [Ge] [Gd]6 [GB]3 | [Gd]2 [DB] [FA]6- [FA]2 F | %11
w: |||
 [EG]2 [DA] [DB]6- [DB]2- [DB]/ z/ | [DB][Ec][Fd] [Ge]6- [Ge]2 [Ge] | [Gc]2 [Ge] [Gd]6 [DB]3 | %14
w: |||
 BG[GB] c2- [Fc-] [Fc-]2 [Fc-] [F-c]>F[FA] | .F3 G3- G6- | G6 z6 |] %17
w: |||
V:2
 x9 | .D3 z3 z3 | .D3 z3 z3 | x9 | x9 | .D3 z3 z3 | .D3 z3 z3 | .D3 z3 z3 |[M:12/8] x12 | x12 | %10
 x12 | x12 | x12 | x12 | .D3 .F3 z6 | D-[DE][DF] D3 E3 D3- | D6 z6 |] %17
V:3
 G,2 G, G,3 G,3 | A,G,A, B,3 G,3 | G,B,[K:treble]C C3- C2 A, | G,2[K:bass] F, G,6 | %4
 G,2 G, G,3 G,3 | A,G,A, B,3 G,3 | G,B,[K:treble]D D3- D2 D | C2 C B,6 |[M:12/8] z3 .C3 .C3 .C3 | %9
 E2 C[K:bass] B,3 B,3 D2 D | B,2 G, A,2 A, A,2 A, A,2 A, | A,2 A, G,2 G, G,2 G, G,3 | %12
 z3[K:treble] .C3 .C3 .C3 | E2 C[K:bass] B,3 B,3 G,2 G, | G,B,[K:treble]D D6- D3/2 z/ D | %15
 C2[K:bass] C B,3 C3 B,3- | B,6 z6 |] %17
V:4
 G,,2 G,, G,,3 z3 | .G,2 G, G,3 z3 | z2 G, D,3- D,2 C, | C,2 A,, G,,6 | G,,2 G,, G,,3 z3 | %5
 .G,2 G, G,3 z3 | z2 G, D,3- D,2 D, | D,2 D, G,,6 |[M:12/8] z3 .C,3 .C,3 .C,3 | %9
 C,3 G,3 G,3 G,2 G, | .G,3 D,2 ^C, D,2 E, F,2 D, | E,2 F, z3 z6 | z3 .C,3 .C,3 .C,3 | %13
 C,3 G,3 G,3 z3 | z2 G, D,2 D, D,2 D, D,2 D, | D,2 D, G,,3- G,,6- | G,,6 z6 |] %17

